local/share/icons/dracula-icons-main/24/actions/file-zoom-in.svg

<?xml version="1.0" encoding="UTF-8"?>
<svg xmlns="http://www.w3.org/2000/svg" xmlns:xlink="http://www.w3.org/1999/xlink" width="24" height="24" viewBox="0 0 24 24">
<path fill-rule="nonzero" fill="rgb(100%, 100%, 100%)" fill-opacity="1" d="M 6 4 C 4.890625 4 4 4.890625 4 6 L 4 7 L 5 7 L 5 6 C 5 5.445312 5.445312 5 6 5 L 7 5 L 7 4 Z M 9 4 L 9 5 L 11 5 L 11 4 Z M 13 4 L 13 5 L 15 5 L 15 4 Z M 17 4 L 17 5 L 18 5 C 18.554688 5 19 5.445312 19 6 L 19 7 L 20 7 L 20 6 C 20 4.890625 19.109375 4 18 4 Z M 12 8 L 12 9 L 14.292969 9 L 11 12.292969 L 11.707031 13 L 15 9.707031 L 15 12 L 16 12 L 16 8 Z M 4 9 L 4 11 L 5 11 L 5 9 Z M 19 9 L 19 11 L 20 11 L 20 9 Z M 19 13 L 19 15 L 20 15 L 20 13 Z M 6 14 C 4.890625 14 4 14.890625 4 16 L 4 18 C 4 19.109375 4.890625 20 6 20 L 8 20 C 9.109375 20 10 19.109375 10 18 L 10 16 C 10 14.890625 9.109375 14 8 14 Z M 6 15 L 8 15 C 8.554688 15 9 15.445312 9 16 L 9 18 C 9 18.554688 8.554688 19 8 19 L 6 19 C 5.445312 19 5 18.554688 5 18 L 5 16 C 5 15.445312 5.445312 15 6 15 Z M 19 17 L 19 18 C 19 18.554688 18.554688 19 18 19 L 17 19 L 17 20 L 18 20 C 19.109375 20 20 19.109375 20 18 L 20 17 Z M 19 17 "/>
</svg>

<svg width="24" height="24" version="1.1" viewBox="0 0 24 24" xmlns="http://www.w3.org/2000/svg">
 <defs>
  <style id="current-color-scheme" type="text/css">.ColorScheme-Text {
        color:#FFFFFF;
      }</style>
 </defs>
 <path class="ColorScheme-Text" d="m6 4c-1.108 0-2 0.892-2 2v1h1v-1c0-0.554 0.446-1 1-1h1v-1zm3 0v1h2v-1zm4 0v1h2v-1zm4 0v1h1c0.554 0 1 0.446 1 1v1h1v-1c0-1.108-0.892-2-2-2zm-5 4v1h2.293l-3.293 3.293 0.70703 0.70703 3.293-3.293v2.293h1v-4h-4zm-8 1v2h1v-2zm15 0v2h1v-2zm0 4v2h1v-2zm-13 1c-1.108 0-2 0.892-2 2v2c0 1.108 0.892 2 2 2h2c1.108 0 2-0.892 2-2v-2c0-1.108-0.892-2-2-2zm0 1h2c0.554 0 1 0.446 1 1v2c0 0.554-0.446 1-1 1h-2c-0.554 0-1-0.446-1-1v-2c0-0.554 0.446-1 1-1zm13 2v1c0 0.554-0.446 1-1 1h-1v1h1c1.108 0 2-0.892 2-2v-1z" fill="currentColor"/>
</svg>
